docs/benchmarks/svg/operations/Probabilistic/InsertDeleteCycles/Uniform/Rotations__sbezier.svg

<svg xmlns="http://www.w3.org/2000/svg" xmlns:xlink="http://www.w3.org/1999/xlink" viewBox="0 0 400 250"><path fill="none" d="M0 0h400v250H0z"/><defs><path id="d" stroke="currentColor" stroke-width=".267" d="M-1 0h2M0-1v2"/><path id="e" stroke="currentColor" stroke-width=".267" d="m-1-1 2 2m0-2-2 2"/><path id="f" stroke="currentColor" stroke-width=".267" d="M-1 0h2M0-1v2m-1-2 2 2m-2 0 2-2"/><path id="b" stroke="currentColor" stroke-width=".267" d="M-1-1h2v2h-2z"/><path id="a" stroke="currentColor" stroke-width=".267" d="m0-1.33-1.33 2h2.66z"/><path id="c" stroke="currentColor" stroke-width=".267" d="M0 1.33 1.265.411.782-1.067l-1.564-.009-.483 1.487z"/></defs><path fill="none" stroke="#333" stroke-linecap="round" stroke-linejoin="round" stroke-width=".1" d="M46.1 205V45.01" class="gridline" color="#000"/><g fill="none" stroke-linecap="round" stroke-linejoin="round" stroke-width="0" color="#000"><path d="M46.1 205v-7.5m0-152.49v7.5"/><text fill="#000" font-family="KaTeX_Main" font-size="8" text-anchor="middle" transform="translate(46.1 215.1)"><tspan> 1</tspan></text></g><path fill="none" stroke="#333" stroke-linecap="round" stroke-linejoin="round" stroke-width=".1" d="M82.31 205V45.01" class="gridline" color="#000"/><g fill="none" stroke-linecap="round" stroke-linejoin="round" stroke-width="0" color="#000"><path d="M82.31 205v-7.5m0-152.49v7.5"/><text fill="#000" font-family="KaTeX_Main" font-size="8" text-anchor="middle" transform="translate(82.31 215.1)"><tspan> 2</tspan></text></g><path fill="none" stroke="#333" stroke-linecap="round" stroke-linejoin="round" stroke-width=".1" d="M118.52 205V45.01" class="gridline" color="#000"/><g fill="none" stroke-linecap="round" stroke-linejoin="round" stroke-width="0" color="#000"><path d="M118.52 205v-7.5m0-152.49v7.5"/><text fill="#000" font-family="KaTeX_Main" font-size="8" text-anchor="middle" transform="translate(118.52 215.1)"><tspan> 3</tspan></text></g><path fill="none" stroke="#333" stroke-linecap="round" stroke-linejoin="round" stroke-width=".1" d="M154.73 205V45.01" class="gridline" color="#000"/><g fill="none" stroke-linecap="round" stroke-linejoin="round" stroke-width="0" color="#000"><path d="M154.73 205v-7.5m0-152.49v7.5"/><text fill="#000" font-family="KaTeX_Main" font-size="8" text-anchor="middle" transform="translate(154.73 215.1)"><tspan> 4</tspan></text></g><path fill="none" stroke="#333" stroke-linecap="round" stroke-linejoin="round" stroke-width=".1" d="M190.94 205V45.01" class="gridline" color="#000"/><g fill="none" stroke-linecap="round" stroke-linejoin="round" stroke-width="0" color="#000"><path d="M190.94 205v-7.5m0-152.49v7.5"/><text fill="#000" font-family="KaTeX_Main" font-size="8" text-anchor="middle" transform="translate(190.94 215.1)"><tspan> 5</tspan></text></g><path fill="none" stroke="#333" stroke-linecap="round" stroke-linejoin="round" stroke-width=".1" d="M227.15 205V45.01" class="gridline" color="#000"/><g fill="none" stroke-linecap="round" stroke-linejoin="round" stroke-width="0" color="#000"><path d="M227.15 205v-7.5m0-152.49v7.5"/><text fill="#000" font-family="KaTeX_Main" font-size="8" text-anchor="middle" transform="translate(227.15 215.1)"><tspan> 6</tspan></text></g><path fill="none" stroke="#333" stroke-linecap="round" stroke-linejoin="round" stroke-width=".1" d="M263.36 205V45.01" class="gridline" color="#000"/><g fill="none" stroke-linecap="round" stroke-linejoin="round" stroke-width="0" color="#000"><path d="M263.36 205v-7.5m0-152.49v7.5"/><text fill="#000" font-family="KaTeX_Main" font-size="8" text-anchor="middle" transform="translate(263.36 215.1)"><tspan> 7</tspan></text></g><path fill="none" stroke="#333" stroke-linecap="round" stroke-linejoin="round" stroke-width=".1" d="M299.57 205V45.01" class="gridline" color="#000"/><g fill="none" stroke-linecap="round" stroke-linejoin="round" stroke-width="0" color="#000"><path d="M299.57 205v-7.5m0-152.49v7.5"/><text fill="#000" font-family="KaTeX_Main" font-size="8" text-anchor="middle" transform="translate(299.57 215.1)"><tspan> 8</tspan></text></g><path fill="none" stroke="#333" stroke-linecap="round" stroke-linejoin="round" stroke-width=".1" d="M335.78 205V45.01" class="gridline" color="#000"/><g fill="none" stroke-linecap="round" stroke-linejoin="round" stroke-width="0" color="#000"><path d="M335.78 205v-7.5m0-152.49v7.5"/><text fill="#000" font-family="KaTeX_Main" font-size="8" text-anchor="middle" transform="translate(335.78 215.1)"><tspan> 9</tspan></text></g><path fill="none" stroke="#333" stroke-linecap="round" stroke-linejoin="round" stroke-width=".1" d="M371.99 205V45.01" class="gridline" color="#000"/><g fill="none" stroke-linecap="round" stroke-linejoin="round" stroke-width="0" color="#000"><path d="M371.99 205v-7.5m0-152.49v7.5"/><text fill="#000" font-family="KaTeX_Main" font-size="8" text-anchor="middle" transform="translate(371.99 215.1)"><tspan> 10</tspan></text></g><g fill="none" stroke-linecap="round" stroke-linejoin="round" stroke-width="0" color="#000"><path d="M371.99 205h-7.5"/><text fill="#000" font-family="KaTeX_Main" font-size="8" transform="translate(378.99 207.6)"><tspan>-1.00</tspan></text></g><g fill="none" stroke-linecap="round" stroke-linejoin="round" stroke-width="0" color="#000"><path d="M371.99 165h-7.5"/><text fill="#000" font-family="KaTeX_Main" font-size="8" transform="translate(378.99 167.6)"><tspan>-0.50</tspan></text></g><g fill="none" stroke-linecap="round" stroke-linejoin="round" stroke-width="0" color="#000"><path d="M371.99 125h-7.5"/><text fill="#000" font-family="KaTeX_Main" font-size="8" transform="translate(378.99 127.6)"><tspan>0.00</tspan></text></g><g fill="none" stroke-linecap="round" stroke-linejoin="round" stroke-width="0" color="#000"><path d="M371.99 85.01h-7.5"/><text fill="#000" font-family="KaTeX_Main" font-size="8" transform="translate(378.99 87.61)"><tspan>0.50</tspan></text></g><g fill="none" stroke-linecap="round" stroke-linejoin="round" stroke-width="0" color="#000"><path d="M371.99 45.01h-7.5"/><text fill="#000" font-family="KaTeX_Main" font-size="8" transform="translate(378.99 47.61)"><tspan>1.00</tspan></text></g><path fill="none" d="M28 45.01V205M371.99 45.01H28" color="#000"/><text stroke-linecap="round" stroke-linejoin="round" stroke-width="0" color="#000" font-family="KaTeX_Main" font-size="10" text-anchor="middle" transform="rotate(-90 68.255 56.755)"><tspan font-weight="bold">Rotations</tspan><tspan> / Operation</tspan></text><text stroke-linecap="round" stroke-linejoin="round" stroke-width="0" color="#000" font-family="KaTeX_Main" font-size="10" text-anchor="middle" transform="translate(199.99 238.25)"><tspan>Operations × 10</tspan><tspan dy="-5" font-size="8">5</tspan></text><text stroke-linecap="round" stroke-linejoin="round" color="#000" font-family="KaTeX_Main" font-size="8" transform="translate(116 10.11)"><tspan>TreapTopDown</tspan></text><g fill="none" stroke="currentColor" stroke-linecap="round" stroke-linejoin="round" color="#000"><path stroke="#F44336" stroke-dasharray="4.5,2.0,0.5,2.0,0.5,2.0" d="M80.5 7.51h29.9M28 125h343.99"/><use xlink:href="#c" color="#F44336" transform="matrix(3.75 0 0 3.75 353.89 125)"/><use xlink:href="#c" color="#F44336" transform="matrix(3.75 0 0 3.75 95.45 7.51)"/></g><text stroke-linecap="round" stroke-linejoin="round" color="#000" font-family="KaTeX_Main" font-size="8" transform="translate(116 25.11)"><tspan>TreapFingerTree</tspan></text><g fill="none" stroke="currentColor" stroke-linecap="round" stroke-linejoin="round" color="#000"><path stroke="#3B75EA" d="M80.5 22.51h29.9M28 125h1.09l.36-.01h1.45l.36-.01h.36l.36-.01h.73l.36-.01h.36l.36-.01h1.09l.36-.01h.73l.36.01h1.45l.36.01h.72l.36.01h.73l.36.01h1.09l.36.01h1.81l.36.01h3.26l.36-.01h3.62l.37-.01h2.17l.36-.01h17.74l.37.01h5.06l.37.01h11.22l.36-.01h2.18l.36-.01h2.9l.36-.01h10.5l.36.01h3.98l.37.01h2.89l.36.01h4.71l.36.01h1.81l.37-.01h6.88l.36-.01h9.77l.37-.01h2.53l.36.01h6.88l.37.01h39.83l.36-.01h13.4l.36.01h58.66l.36-.01h5.07l.36-.01h4.35l.36-.01h5.07l.36-.01h10.86l.36.01h1.81l.37.01h1.44l.37.01h2.53l.36.01h5.8l.36-.01h4.34l.37.01h7.96l.36-.01h13.4l.36.01h2.9l.36.01h6.16l.36-.01h11.23l.36.01h18.83l.36-.01h.72l.37-.01.36-.02.36-.01.36-.01.36.01.37.03.36.02h.36"/><use xlink:href="#d" color="#3B75EA" transform="matrix(3.75 0 0 3.75 67.83 124.97)"/><use xlink:href="#d" color="#3B75EA" transform="matrix(3.75 0 0 3.75 95.45 22.51)"/></g><text stroke-linecap="round" stroke-linejoin="round" color="#000" font-family="KaTeX_Main" font-size="8" transform="translate(241.1 10.11)"><tspan>Randomized</tspan></text><g fill="none" stroke="currentColor" stroke-linecap="round" stroke-linejoin="round" color="#000"><path stroke="#FFAB00" d="M205.6 7.51h29.9M28 125h343.99"/><use xlink:href="#e" color="#FFAB00" transform="matrix(3.75 0 0 3.75 125.4 125)"/><use xlink:href="#e" color="#FFAB00" transform="matrix(3.75 0 0 3.75 220.55 7.51)"/></g><text stroke-linecap="round" stroke-linejoin="round" color="#000" font-family="KaTeX_Main" font-size="8" transform="translate(241.1 25.11)"><tspan>Zip</tspan></text><g fill="none" stroke="currentColor" stroke-linecap="round" stroke-linejoin="round" color="#000"><path stroke="#00C853" d="M205.6 22.51h29.9M28 125h343.99"/><use xlink:href="#f" color="#00C853" transform="matrix(3.75 0 0 3.75 182.98 125)"/><use xlink:href="#f" color="#00C853" transform="matrix(3.75 0 0 3.75 220.55 22.51)"/></g><path fill="none" d="M28 45.01V205M371.99 45.01H28" color="#000"/></svg>

<svg xmlns="http://www.w3.org/2000/svg" xmlns:xlink="http://www.w3.org/1999/xlink" viewBox="0 0 400 250"><path fill="none" d="M0 0h400v250H0z"/><defs><path id="g" stroke="currentColor" stroke-width=".267" d="M-1 0h2M0-1v2"/><path id="h" stroke="currentColor" stroke-width=".267" d="m-1-1 2 2m0-2-2 2"/><path id="i" stroke="currentColor" stroke-width=".267" d="M-1 0h2M0-1v2m-1-2 2 2m-2 0 2-2"/><path id="d" stroke="currentColor" stroke-width=".267" d="M-1-1h2v2h-2z"/><path id="b" stroke="currentColor" stroke-width=".267" d="m0-1.33-1.33 2h2.66z"/><path id="f" stroke="currentColor" stroke-width=".267" d="M0 1.33 1.265.411.782-1.067l-1.564-.009-.483 1.487z"/><use xlink:href="#b" id="c" stroke="currentColor" transform="rotate(180)"/><use xlink:href="#d" id="e" stroke="currentColor" transform="rotate(45)"/><circle id="a" cx="0" cy="0" r="1" stroke="currentColor" stroke-width=".267"/></defs><path fill="none" stroke="#333" stroke-linecap="round" stroke-linejoin="round" stroke-width=".1" d="M46.1 205V45.01" class="gridline" color="#000"/><g fill="none" stroke="none" stroke-linecap="round" stroke-linejoin="round" stroke-width="0" color="#000"><path d="M46.1 205v-7.5m0-152.49v7.5"/><text fill="#000" font-family="KaTeX_Main" font-size="8" text-anchor="middle" transform="translate(46.1 215.1)"><tspan> 1</tspan></text></g><path fill="none" stroke="#333" stroke-linecap="round" stroke-linejoin="round" stroke-width=".1" d="M82.31 205V45.01" class="gridline" color="#000"/><g fill="none" stroke="none" stroke-linecap="round" stroke-linejoin="round" stroke-width="0" color="#000"><path d="M82.31 205v-7.5m0-152.49v7.5"/><text fill="#000" font-family="KaTeX_Main" font-size="8" text-anchor="middle" transform="translate(82.31 215.1)"><tspan> 2</tspan></text></g><path fill="none" stroke="#333" stroke-linecap="round" stroke-linejoin="round" stroke-width=".1" d="M118.52 205V45.01" class="gridline" color="#000"/><g fill="none" stroke="none" stroke-linecap="round" stroke-linejoin="round" stroke-width="0" color="#000"><path d="M118.52 205v-7.5m0-152.49v7.5"/><text fill="#000" font-family="KaTeX_Main" font-size="8" text-anchor="middle" transform="translate(118.52 215.1)"><tspan> 3</tspan></text></g><path fill="none" stroke="#333" stroke-linecap="round" stroke-linejoin="round" stroke-width=".1" d="M154.73 205V45.01" class="gridline" color="#000"/><g fill="none" stroke="none" stroke-linecap="round" stroke-linejoin="round" stroke-width="0" color="#000"><path d="M154.73 205v-7.5m0-152.49v7.5"/><text fill="#000" font-family="KaTeX_Main" font-size="8" text-anchor="middle" transform="translate(154.73 215.1)"><tspan> 4</tspan></text></g><path fill="none" stroke="#333" stroke-linecap="round" stroke-linejoin="round" stroke-width=".1" d="M190.94 205V45.01" class="gridline" color="#000"/><g fill="none" stroke="none" stroke-linecap="round" stroke-linejoin="round" stroke-width="0" color="#000"><path d="M190.94 205v-7.5m0-152.49v7.5"/><text fill="#000" font-family="KaTeX_Main" font-size="8" text-anchor="middle" transform="translate(190.94 215.1)"><tspan> 5</tspan></text></g><path fill="none" stroke="#333" stroke-linecap="round" stroke-linejoin="round" stroke-width=".1" d="M227.15 205V45.01" class="gridline" color="#000"/><g fill="none" stroke="none" stroke-linecap="round" stroke-linejoin="round" stroke-width="0" color="#000"><path d="M227.15 205v-7.5m0-152.49v7.5"/><text fill="#000" font-family="KaTeX_Main" font-size="8" text-anchor="middle" transform="translate(227.15 215.1)"><tspan> 6</tspan></text></g><path fill="none" stroke="#333" stroke-linecap="round" stroke-linejoin="round" stroke-width=".1" d="M263.36 205V45.01" class="gridline" color="#000"/><g fill="none" stroke="none" stroke-linecap="round" stroke-linejoin="round" stroke-width="0" color="#000"><path d="M263.36 205v-7.5m0-152.49v7.5"/><text fill="#000" font-family="KaTeX_Main" font-size="8" text-anchor="middle" transform="translate(263.36 215.1)"><tspan> 7</tspan></text></g><path fill="none" stroke="#333" stroke-linecap="round" stroke-linejoin="round" stroke-width=".1" d="M299.57 205V45.01" class="gridline" color="#000"/><g fill="none" stroke="none" stroke-linecap="round" stroke-linejoin="round" stroke-width="0" color="#000"><path d="M299.57 205v-7.5m0-152.49v7.5"/><text fill="#000" font-family="KaTeX_Main" font-size="8" text-anchor="middle" transform="translate(299.57 215.1)"><tspan> 8</tspan></text></g><path fill="none" stroke="#333" stroke-linecap="round" stroke-linejoin="round" stroke-width=".1" d="M335.78 205V45.01" class="gridline" color="#000"/><g fill="none" stroke="none" stroke-linecap="round" stroke-linejoin="round" stroke-width="0" color="#000"><path d="M335.78 205v-7.5m0-152.49v7.5"/><text fill="#000" font-family="KaTeX_Main" font-size="8" text-anchor="middle" transform="translate(335.78 215.1)"><tspan> 9</tspan></text></g><path fill="none" stroke="#333" stroke-linecap="round" stroke-linejoin="round" stroke-width=".1" d="M371.99 205V45.01" class="gridline" color="#000"/><g fill="none" stroke="none" stroke-linecap="round" stroke-linejoin="round" stroke-width="0" color="#000"><path d="M371.99 205v-7.5m0-152.49v7.5"/><text fill="#000" font-family="KaTeX_Main" font-size="8" text-anchor="middle" transform="translate(371.99 215.1)"><tspan> 10</tspan></text></g><g fill="none" stroke="none" stroke-linecap="round" stroke-linejoin="round" stroke-width="0" color="#000"><path d="M371.99 205h-7.5"/><text fill="#000" font-family="KaTeX_Main" font-size="8" transform="translate(378.99 207.6)"><tspan>-1.00</tspan></text></g><g fill="none" stroke="none" stroke-linecap="round" stroke-linejoin="round" stroke-width="0" color="#000"><path d="M371.99 165h-7.5"/><text fill="#000" font-family="KaTeX_Main" font-size="8" transform="translate(378.99 167.6)"><tspan>-0.50</tspan></text></g><g fill="none" stroke="none" stroke-linecap="round" stroke-linejoin="round" stroke-width="0" color="#000"><path d="M371.99 125h-7.5"/><text fill="#000" font-family="KaTeX_Main" font-size="8" transform="translate(378.99 127.6)"><tspan>0.00</tspan></text></g><g fill="none" stroke="none" stroke-linecap="round" stroke-linejoin="round" stroke-width="0" color="#000"><path d="M371.99 85.01h-7.5"/><text fill="#000" font-family="KaTeX_Main" font-size="8" transform="translate(378.99 87.61)"><tspan>0.50</tspan></text></g><g fill="none" stroke="none" stroke-linecap="round" stroke-linejoin="round" stroke-width="0" color="#000"><path d="M371.99 45.01h-7.5"/><text fill="#000" font-family="KaTeX_Main" font-size="8" transform="translate(378.99 47.61)"><tspan>1.00</tspan></text></g><path fill="none" stroke="none" stroke-linecap="round" stroke-linejoin="round" stroke-width="0" d="M28 45.01V205M371.99 45.01H28" color="#000"/><text fill="#000" stroke="none" stroke-linecap="round" stroke-linejoin="round" stroke-width="0" color="#000" font-family="KaTeX_Main" font-size="10" text-anchor="middle" transform="rotate(-90 68.255 56.755)"><tspan font-weight="bold">Rotations</tspan><tspan> / Operation</tspan></text><text fill="#000" stroke="none" stroke-linecap="round" stroke-linejoin="round" stroke-width="0" color="#000" font-family="KaTeX_Main" font-size="10" text-anchor="middle" transform="translate(199.99 238.25)"><tspan>Operations × 10</tspan><tspan dy="-5" font-size="8">5</tspan></text><text fill="#000" stroke="none" stroke-linecap="round" stroke-linejoin="round" color="#000" font-family="KaTeX_Main" font-size="8" transform="translate(116 10.11)"><tspan>TreapTopDown</tspan></text><g fill="none" stroke="currentColor" stroke-linecap="round" stroke-linejoin="round" color="#000"><path stroke="#F44336" stroke-dasharray="4.5,2.0,0.5,2.0,0.5,2.0" d="M80.5 7.51h29.9M28 125H371.99"/><use xlink:href="#f" color="#F44336" transform="matrix(3.75 0 0 3.75 353.89 125)"/><use xlink:href="#f" color="#F44336" transform="matrix(3.75 0 0 3.75 95.45 7.51)"/></g><text fill="#000" stroke="none" stroke-linecap="round" stroke-linejoin="round" color="#000" font-family="KaTeX_Main" font-size="8" transform="translate(116 25.11)"><tspan>TreapFingerTree</tspan></text><g fill="none" stroke="currentColor" stroke-linecap="round" stroke-linejoin="round" color="#000"><path stroke="#3B75EA" d="M80.5 22.51h29.9M28 125H29.09l.36-.01H30.9l.36-.01h.36l.36-.01h.73l.36-.01h.36l.36-.01H34.88l.36-.01h.73l.36.01H37.78l.36.01h.72l.36.01h.73l.36.01H41.4l.36.01H43.57l.36.01H47.19l.36-.01H51.17l.37-.01h2.17l.36-.01H71.81l.37.01H77.24l.37.01H88.83l.36-.01H91.37l.36-.01h2.9l.36-.01H105.49l.36.01H109.83l.37.01H113.09l.36.01h4.71l.36.01H120.33l.37-.01H127.58l.36-.01h9.77l.37-.01h2.53l.36.01H147.85l.37.01H188.05l.36-.01H201.81l.36.01H260.83l.36-.01H266.26l.36-.01H270.97l.36-.01h5.07l.36-.01H287.62l.36.01H289.79l.37.01h1.44l.37.01h2.53l.36.01H300.66l.36-.01H305.36l.37.01H313.69l.36-.01H327.45l.36.01H330.71l.36.01H337.23l.36-.01H348.82l.36.01H368.01l.36-.01h.72l.37-.01.36-.02.36-.01.36-.01.36.01.37.03.36.02h.36"/><use xlink:href="#g" color="#3B75EA" transform="matrix(3.75 0 0 3.75 67.83 124.97)"/><use xlink:href="#g" color="#3B75EA" transform="matrix(3.75 0 0 3.75 95.45 22.51)"/></g><text fill="#000" stroke="none" stroke-linecap="round" stroke-linejoin="round" color="#000" font-family="KaTeX_Main" font-size="8" transform="translate(241.1 10.11)"><tspan>Randomized</tspan></text><g fill="none" stroke="currentColor" stroke-linecap="round" stroke-linejoin="round" color="#000"><path stroke="#FFAB00" d="M205.6 7.51h29.9M28 125H371.99"/><use xlink:href="#h" color="#FFAB00" transform="matrix(3.75 0 0 3.75 125.4 125)"/><use xlink:href="#h" color="#FFAB00" transform="matrix(3.75 0 0 3.75 220.55 7.51)"/></g><text fill="#000" stroke="none" stroke-linecap="round" stroke-linejoin="round" color="#000" font-family="KaTeX_Main" font-size="8" transform="translate(241.1 25.11)"><tspan>Zip</tspan></text><g fill="none" stroke="currentColor" stroke-linecap="round" stroke-linejoin="round" color="#000"><path stroke="#00C853" d="M205.6 22.51h29.9M28 125H371.99"/><use xlink:href="#i" color="#00C853" transform="matrix(3.75 0 0 3.75 182.98 125)"/><use xlink:href="#i" color="#00C853" transform="matrix(3.75 0 0 3.75 220.55 22.51)"/></g><path fill="none" stroke="none" stroke-linecap="round" stroke-linejoin="round" stroke-width="0" d="M28 45.01V205M371.99 45.01H28" color="#000"/></svg>
